X:1
T:Wisdom, 87.87
T:Wisdom, 87.87
T:George Thomas Thalben-Ball (1896-1987)
T:Courtesy of the Cyber Hymnal™
C:George Thomas Thalben-Ball (1896-1987)
Z:Courtesy of the Cyber Hymnal™
%%score ( 1 2 ) ( 3 4 )
L:1/8
Q:1/4=110
M:4/4
K:Ab
V:1 treble 
V:2 treble 
V:3 bass 
V:4 bass 
V:1
 E2 | c3 z B [EA]2 ([EG][DF]) | [CE]3 [B,D] [A,C]2 E2 | [EF]3 [DG] [CA]2 (cB) | [EA]4 [EG]2 F2 | %5
 d3 z c [FB]2 [DA]2 | [EG]2 ([EA][DF]) [B,B]2 [B,E]2 | [CF]2 [EG]2 [FA]2 (Bc) | B4 [EA]2 |] %9
V:2
 E2 | E2 E2 x5 | x6 E2 | x6 F2 | x6 F2 | F2 F2 x5 | x8 | x6 F2 | (F2 G2) x2 |] %9
V:3
 E,2 | [E,F,]2 [D,G,]2 [C,A,]2 [D,A,]2 x | [E,G,]2 ([F,A,][G,B,]) [A,C]2 [C,A,]2 | %3
 [D,A,]2 (CB,) [F,A,]2 (A,B,) | [E,C]4 [E,B,]2 F,2 | [F,G,]2 [E,=A,]2 [D,B,]2 [B,,B,]2 x | %6
 [E,B,]2 [F,A,]2 [G,B,]2 [E,G,]2 | A,2 [G,B,]2 [F,C]2 [E,A,]2 | B,4 [A,,C]2 |] %9
V:4
 E,2 | x9 | x8 | x2 E,2 x D,2 x | x6 F,2 | x9 | x8 | A,2 x6 | (D,2 E,2) x2 |] %9

